!!!COM: Music21
!!!OTL: waltz_Mozarts
!!!OMV: waltz_Mozarts
**kern
*clefG2
*k[f#c#]
*D:
*M3/4
=1
8ddL
8ff#J
=
8aaL
8dddJ
8ccc#L
8aaJ
8ggL
8ff#J
=
8ff#L
8aaJ
4dd
4dd
=
8cc#L
8eeJ
8ggL
8eeJ
8cc#L
8eeJ
=
8ddL
8ff#J
4aa
4aa
=
8aaL
8dddJ
8ccc#L
8bbJ
8aaL
8ggJ
=
8ff#L
8aaJ
4dd
4dd
!!linebreak:original
=
8cc#L
8eeJ
8ggL
8eeJ
8cc#L
8eeJ
=
2dd
4ryy
=||
*M3/4
8ddL
8ff#J
=
8aaL
8dddJ
8ccc#L
8aaJ
8ggL
8ff#J
=
8ff#L
8aaJ
4dd
4dd
=
8cc#L
8eeJ
8ggL
8eeJ
8cc#L
8eeJ
=
8ddL
8ff#J
4aa
4aa
!!linebreak:original
=
8aaL
8dddJ
8ccc#L
8bbJ
8aaL
8ggJ
=
8ff#L
8aaJ
4dd
4dd
=
8cc#L
8eeJ
8ggL
8eeJ
8cc#L
8eeJ
=
2dd
4ryy
=||
4dd
2ryy
=
8cc#L
8eeJ
8ggL
8eeJ
8cc#L
8eeJ
=
8ddL
8ff#J
8aaL
8ff#J
8ddL
8ff#J
!!linebreak:original
=
8cc#L
8eeJ
8ggL
8eeJ
8cc#L
8eeJ
=
8ddL
8ff#J
4aa
4aa
=
8aaL
8dddJ
8ccc#L
8bbJ
8aaL
8ggJ
=
8ff#L
8aaJ
4dd
4dd
=
8cc#L
8eeJ
8ggL
8eeJ
8cc#L
8eeJ
=
2dd
4ryy
=||
4dd
2ryy
=
8cc#L
8eeJ
8ggL
8eeJ
8cc#L
8eeJ
!!linebreak:original
=
8ddL
8ff#J
8aaL
8ff#J
8ddL
8ff#J
=
8cc#L
8eeJ
8ggL
8eeJ
8cc#L
8eeJ
=
8ddL
8ff#J
4aa
4aa
=
8aaL
8dddJ
8ccc#L
8bbJ
8aaL
8ggJ
=
8ff#L
8aaJ
4dd
4dd
=
8cc#L
8eeJ
8ggL
8eeJ
8cc#L
8eeJ
=
2dd
4ryy
=||
4a
2ryy
!!linebreak:original
=
4.dd
8ff#
8aaL
8ff#J
=
8bbL
8ggJ
4ee
4ee
=
8cc#L
8ddJ
8eeL
8ff#J
8ggL
8aaJ
=
8bbL
8aaJ
8ggL
8aaJ
8ggL
8ff#J
=
4.dd
8ff#
8aaL
8ff#J
=
8bbL
8ggJ
4ee
4ee
=
8aL
8bJ
8cc#L
8ddJ
8eeL
8cc#J
=
2dd
4ryy
!!linebreak:original
=||
4a
2ryy
=
4.dd
8ff#
8aaL
8ff#J
=
8bbL
8ggJ
4ee
4ee
=
8cc#L
8ddJ
8eeL
8ff#J
8ggL
8aaJ
=
8bbL
8aaJ
8ggL
8aaJ
8ggL
8ff#J
=
4.dd
8ff#
8aaL
8ff#J
=
8bbL
8ggJ
4ee
4ee
=
8aL
8bJ
8cc#L
8ddJ
8eeL
8cc#J
!!linebreak:original
=
2dd
4ryy
=||
8ff#L
8aaJ
2ryy
=
8aaL
8ggJ
8ff#L
8ggJ
8eeL
8ff#J
=
8ggL
8ff#J
8eeL
8ff#J
8ddL
8ff#J
=
8aaL
8ggJ
8ff#L
8ggJ
8eeL
8ggJ
=
4bb
4aa
8ff#L
8aaJ
=
8aaL
8ggJ
8ff#L
8ggJ
8eeL
8ff#J
!!linebreak:original
=
8ggL
8ff#J
8eeL
8ff#J
8ddL
8ff#J
=
8bbL
8aaJ
8bbL
8ggJ
8eeL
8cc#J
=
2dd
4ryy
=||
8ff#L
8aaJ
2ryy
=
8aaL
8ggJ
8ff#L
8ggJ
8eeL
8ff#J
=
8ggL
8ff#J
8eeL
8ff#J
8ddL
8ff#J
=
8aaL
8ggJ
8ff#L
8ggJ
8eeL
8ggJ
!!linebreak:original
=
4bb
4aa
8ff#L
8aaJ
=
8aaL
8ggJ
8ff#L
8ggJ
8eeL
8ff#J
=
8ggL
8ff#J
8eeL
8ff#J
8ddL
8ff#J
=
8bbL
8aaJ
8bbL
8ggJ
8eeL
8cc#J
=
2dd
4ryy
=||
*-
